X:1
T:Orange and Blue (The Highland Fling)
M:4/4
L:1/8
K:D
a>g | f<d d2 A<d d2|f>ga<f d2 e>f|g<e e2 B<e e2|c>de<c A2 a>g|
f<d d2 A<d d2|f>ga<f d>fg>a|b>ga>f g>fe<d|c<AB>c d2:|
|:a>g | f<a a2 f<a a2|f>ga<f d2 e>f|g<b b2 g<b b2|g>ab<g e>fg<e|
f<a a2 f<a a2|f>ga<f d>fg>a|b>ga>f g>fe<d|c<AB>c d2:|]
